img/instagram-icon.svg

<svg width="40" height="40" viewBox="0 0 40 40" fill="none" xmlns="http://www.w3.org/2000/svg">
<path fill-rule="evenodd" clip-rule="evenodd" d="M20 40C31.0457 40 40 31.0457 40 20C40 8.9543 31.0457 0 20 0C8.9543 0 0 8.9543 0 20C0 31.0457 8.9543 40 20 40Z" fill="#262626"/>
<path fill-rule="evenodd" clip-rule="evenodd" d="M20 11.5C22.3085 11.5 22.5979 11.5098 23.5045 11.5512C24.4093 11.5924 25.0272 11.7361 25.5678 11.9463C26.1268 12.1634 26.6008 12.4541 27.0734 12.9266C27.5459 13.3992 27.8366 13.8732 28.0538 14.4322C28.2639 14.9728 28.4076 15.5907 28.4488 16.4955C28.4902 17.4021 28.5 17.6915 28.5 20C28.5 22.3085 28.4902 22.5979 28.4488 23.5045C28.4076 24.4093 28.2639 25.0272 28.0538 25.5678C27.8366 26.1268 27.5459 26.6008 27.0734 27.0734C26.6008 27.5459 26.1268 27.8366 25.5678 28.0538C25.0272 28.2639 24.4093 28.4076 23.5045 28.4488C22.5979 28.4902 22.3085 28.5 20 28.5C17.6915 28.5 17.4021 28.4902 16.4955 28.4488C15.5907 28.4076 14.9728 28.2639 14.4322 28.0538C13.8732 27.8366 13.3992 27.5459 12.9266 27.0734C12.4541 26.6008 12.1634 26.1268 11.9463 25.5678C11.7361 25.0272 11.5924 24.4093 11.5512 23.5045C11.5098 22.5979 11.5 22.3085 11.5 20C11.5 17.6915 11.5098 17.4021 11.5512 16.4955C11.5924 15.5907 11.7361 14.9728 11.9463 14.4322C12.1634 13.8732 12.4541 13.3992 12.9266 12.9266C13.3992 12.4541 13.8732 12.1634 14.4322 11.9463C14.9728 11.7361 15.5907 11.5924 16.4955 11.5512C17.4021 11.5098 17.6915 11.5 20 11.5ZM19.9973 22.8298C21.5616 22.8298 22.8298 21.5616 22.8298 19.9973C22.8298 18.433 21.5616 17.1649 19.9973 17.1649C18.433 17.1649 17.1649 18.433 17.1649 19.9973C17.1649 21.5616 18.433 22.8298 19.9973 22.8298ZM19.9973 15.6338C22.4072 15.6338 24.3608 17.5874 24.3608 19.9973C24.3608 22.4072 22.4072 24.3608 19.9973 24.3608C17.5874 24.3608 15.6338 22.4072 15.6338 19.9973C15.6338 17.5874 17.5874 15.6338 19.9973 15.6338ZM25.8556 15.3722C25.8556 15.946 25.3904 16.4111 24.8166 16.4111C24.2429 16.4111 23.7778 15.946 23.7778 15.3722C23.7778 14.7985 24.2429 14.3333 24.8166 14.3333C25.3904 14.3333 25.8556 14.7985 25.8556 15.3722Z" fill="white"/>
</svg>

<svg width="40" height="40" fill="none" xmlns="http://www.w3.org/2000/svg"><path fill-rule="evenodd" clip-rule="evenodd" d="M20 40c11.046 0 20-8.954 20-20S31.046 0 20 0 0 8.954 0 20s8.954 20 20 20z" fill="#262626"/><path fill-rule="evenodd" clip-rule="evenodd" d="M20 11.5c2.308 0 2.598.01 3.505.051.904.041 1.522.185 2.063.395a4.165 4.165 0 011.505.98c.473.473.764.947.98 1.506.21.54.355 1.159.396 2.063.041.907.051 1.197.051 3.505s-.01 2.598-.051 3.505c-.041.904-.185 1.522-.395 2.063a4.167 4.167 0 01-.98 1.505 4.167 4.167 0 01-1.506.98c-.54.21-1.159.355-2.064.396-.906.041-1.196.051-3.504.051s-2.598-.01-3.505-.051c-.904-.041-1.522-.185-2.063-.395a4.167 4.167 0 01-1.505-.98 4.165 4.165 0 01-.98-1.506c-.21-.54-.355-1.159-.396-2.064-.041-.906-.051-1.196-.051-3.504s.01-2.598.051-3.505c.041-.904.185-1.522.395-2.063a4.165 4.165 0 01.98-1.505 4.165 4.165 0 011.506-.98c.54-.21 1.159-.355 2.063-.396.907-.041 1.197-.051 3.505-.051zm-.003 11.33a2.833 2.833 0 100-5.665 2.833 2.833 0 000 5.665zm0-7.196a4.363 4.363 0 110 8.727 4.363 4.363 0 010-8.727zm5.859-.262a1.039 1.039 0 11-2.078 0 1.039 1.039 0 012.078 0z" fill="#fff"/></svg>
